packages/vitzik-app/public/img/svg/instruments/instrument_Kalimba.svg

<?xml version="1.0" encoding="utf-8"?>
<!-- Generator: Adobe Illustrator 25.0.0, SVG Export Plug-In . SVG Version: 6.00 Build 0)  -->
<svg version="1.1" xmlns="http://www.w3.org/2000/svg" xmlns:xlink="http://www.w3.org/1999/xlink" x="0px" y="0px"
	 viewBox="0 0 48 48" style="enable-background:new 0 0 48 48;" xml:space="preserve">
<style type="text/css">
	.st0{fill:#F5DAA7;}
	.st1{fill:#EDC472;}
	.st2{fill:#BC9B5B;}
	.st3{fill:#9A6A53;}
	.st4{fill:#855B47;}
	.st5{fill:#F4E2C1;}
	.st6{fill:#F7F7F7;}
	.st7{fill:#C8C3CA;}
	.st8{fill:#B78C7A;}
	.st9{fill:#7A5341;}
	.st10{fill:#704C3B;}
	.st11{fill:#CF9875;}
	.st12{fill:#C7865B;}
	.st13{clip-path:url(#SVGID_3_);}
	.st14{clip-path:url(#SVGID_4_);fill:#FFFFFF;stroke:#231F20;stroke-miterlimit:10;}
	.st15{fill:#FFFFFF;stroke:#231F20;stroke-miterlimit:10;}
	.st16{fill:none;stroke:#000000;stroke-width:4.5;stroke-miterlimit:10;}
	.st17{fill:#463C4B;}
	.st18{fill:#555A6E;}
	.st19{fill:#F06423;}
	.st20{fill:#FAA51E;}
	.st21{fill:#D7E6F0;}
	.st22{fill:#DADADA;}
	.st23{fill:#C4C6C6;}
	.st24{fill:#EDEEEF;}
	.st25{fill:#797981;}
	.st26{fill:#5A5A63;}
	.st27{fill:#494951;}
	.st28{fill:#29BAED;}
	.st29{fill:#DD9554;}
	.st30{fill:#CC8244;}
	.st31{fill:#805333;}
	.st32{fill:#A56A43;}
	.st33{fill:#CB8252;}
	.st34{fill:#ECF0F1;}
	.st35{fill:#603E26;}
	.st36{fill:#F9EAB0;}
	.st37{fill:#F5EFCA;}
	.st38{fill:#464F5D;}
	.st39{fill:#F3D55B;}
	.st40{fill:#6F6571;}
	.st41{fill:#4B3F4E;}
	.st42{fill:#5D5360;}
	.st43{fill:#857E87;}
	.st44{fill:#ECEAEC;}
	.st45{fill:#DAD8DB;}
	.st46{fill:#B3E59F;}
	.st47{fill:#CCF49F;}
	.st48{fill:#792A47;}
	.st49{fill:#A62B38;}
	.st50{fill:#D22D28;}
	.st51{fill:#FF2F19;}
	.st52{fill:#FFFFFF;}
	.st53{fill:#202666;}
	.st54{fill:#FDE6BB;}
	.st55{fill:#FE501F;}
	.st56{fill:#FD7226;}
	.st57{fill:#FCCD76;}
	.st58{fill:#FB932C;}
	.st59{fill:#4D2857;}
	.st60{fill:#B19046;}
	.st61{fill:#F0C419;}
	.st62{fill:#24AE5F;}
	.st63{fill:#E64C3C;}
	.st64{fill:#3B97D3;}
	.st65{fill:#E74444;}
	.st66{fill:#CE3536;}
	.st67{fill:#D9DBDD;}
	.st68{fill:#E8EDF1;}
	.st69{fill:#F3DB70;}
	.st70{fill:#D5DAF3;}
	.st71{fill:#A2AEE6;}
	.st72{fill:#FFC344;}
	.st73{fill:#FFE177;}
	.st74{fill:#BEC6ED;}
	.st75{fill:#8795DE;}
	.st76{fill-rule:evenodd;clip-rule:evenodd;fill:#A46A5A;}
	.st77{fill-rule:evenodd;clip-rule:evenodd;fill:#845252;}
	.st78{fill-rule:evenodd;clip-rule:evenodd;fill:#FFD05B;}
	.st79{fill-rule:evenodd;clip-rule:evenodd;fill:#704242;}
	.st80{fill-rule:evenodd;clip-rule:evenodd;fill:#FFC244;}
	.st81{fill-rule:evenodd;clip-rule:evenodd;fill:#596C76;}
	.st82{fill-rule:evenodd;clip-rule:evenodd;fill:#465A61;}
	.st83{fill:#A46A5A;}
	.st84{fill:#607D8B;}
	.st85{fill:#9C27B0;}
	.st86{fill:#03A9F4;}
	.st87{fill:#8BC34A;}
	.st88{fill:#FFC107;}
	.st89{fill:#FF9800;}
	.st90{fill:#F44336;}
	.st91{fill:#D7CCC8;}
	.st92{fill:#F57C00;}
	.st93{fill:#F9BB4B;}
	.st94{fill:#FCF05A;}
	.st95{fill:#66342E;}
	.st96{fill:#D3843D;}
	.st97{fill:#704C55;}
	.st98{fill:#5A344B;}
	.st99{fill:#E63950;}
	.st100{fill:#EFE2DD;}
	.st101{fill:#FF435B;}
	.st102{fill:#FFF5F5;}
	.st103{fill:#9B786F;}
	.st104{fill:#925CB4;}
	.st105{fill:#814BA2;}
	.st106{fill:#6F3F8A;}
	.st107{fill:#FFD185;}
	.st108{fill:#FFBA48;}
	.st109{fill:#FF5A35;}
	.st110{fill:#FF7A3C;}
	.st111{fill:#FFE8C2;}
	.st112{fill:#4F4F4F;}
	.st113{fill:#FF3A2F;}
	.st114{fill:#353535;}
	.st115{fill:#FB4A59;}
	.st116{fill:#F82F40;}
	.st117{fill:#3F5959;}
	.st118{fill:#384848;}
	.st119{fill:#EFF5F6;}
	.st120{fill:#CBE5E7;}
	.st121{fill:#FCC16D;}
	.st122{fill:#FCB44D;}
	.st123{fill:#A66856;}
	.st124{fill:#735458;}
	.st125{fill:#FFDEA9;}
	.st126{fill:#5C4346;}
	.st127{fill:#8F5040;}
	.st128{fill:#595959;}
	.st129{fill:#7F221C;}
	.st130{fill:#913122;}
	.st131{fill:#FFEFB0;}
	.st132{fill:#DB2116;}
	.st133{fill:#883F2E;}
	.st134{fill:#A44F3E;}
	.st135{fill:#D8AA5E;}
	.st136{fill:#E9B665;}
	.st137{fill:#E19974;}
	.st138{fill:#FFEFD2;}
	.st139{fill:#D7D0D6;}
	.st140{fill:#E8AD8C;}
	.st141{fill:#6D3326;}
	.st142{fill:#BA5D4F;}
	.st143{fill:#F5A871;}
	.st144{fill:#E89A5E;}
	.st145{fill:#A34F41;}
	.st146{fill:#D68A5A;}
	.st147{fill:#FFE5C4;}
	.st148{fill:#FDD1A7;}
	.st149{fill:#873F30;}
	.st150{fill:#C86F5C;}
	.st151{fill:#6C3328;}
	.st152{fill:#54231D;}
	.st153{fill:#B5B1B3;}
	.st154{fill:#FEC93E;}
	.st155{fill:#EFB533;}
	.st156{fill:#F7A738;}
	.st157{fill:#EA952F;}
	.st158{fill:#FD6E2E;}
	.st159{fill:#EA551B;}
	.st160{fill:#F5A257;}
	.st161{fill:#DB8F52;}
	.st162{fill:#75360D;}
	.st163{fill:#FFBF7B;}
	.st164{fill:#00CCB2;}
	.st165{fill:#00AB94;}
	.st166{fill:#FEA832;}
	.st167{fill:#FF8700;}
	.st168{fill:#00EED0;}
	.st169{fill:#FFD400;}
	.st170{fill:#FDBF00;}
	.st171{fill:#08B865;}
	.st172{fill:#E41F2D;}
	.st173{fill:#FD4755;}
	.st174{fill:#FB2B3A;}
	.st175{fill:#FED2A4;}
	.st176{fill:#FFE5C2;}
	.st177{fill:#FFBD86;}
	.st178{fill:#FE99A0;}
	.st179{fill:#FD8087;}
	.st180{fill:#C57A44;}
	.st181{fill:#09A755;}
	.st182{fill:#FEDF30;}
	.st183{fill:#FED402;}
	.st184{fill:#FAC600;}
	.st185{fill:#46CC8D;}
	.st186{fill:#00C27A;}
	.st187{fill:#FE7701;}
	.st188{fill:#FE860A;}
	.st189{fill:#C41926;}
	.st190{fill:#E89C5D;}
	.st191{fill:#F4B37D;}
	.st192{fill:#E8626C;}
	.st193{fill:#40C6C2;}
	.st194{fill:#FFC999;}
	.st195{fill:#4A4A68;}
	.st196{fill:#333356;}
	.st197{fill:#EDEDED;}
	.st198{fill:#C9C9C9;}
	.st199{fill:#FF9900;}
	.st200{fill:#FFCE00;}
	.st201{fill:#FBBD00;}
	.st202{fill:#ED8100;}
	.st203{fill:#FFE431;}
	.st204{fill:#FF9F00;}
	.st205{fill:#FFE666;}
	.st206{fill:#FFBF00;}
	.st207{fill:#FCCD31;}
	.st208{fill:#F2B016;}
	.st209{fill:#4A4D4F;}
	.st210{fill:#D3CBC2;}
	.st211{fill:#6D7072;}
	.st212{fill:#BAAFA6;}
	.st213{fill:#888C8E;}
	.st214{fill:#B4B4B4;}
	.st215{fill:#FFE999;}
	.st216{fill:#FFCF3B;}
	.st217{fill:#C1C1C1;}
	.st218{fill:#FFBC19;}
	.st219{fill:#94E6FF;}
	.st220{fill:#315F83;}
	.st221{fill:#267EA8;}
	.st222{fill:#3B3F5F;}
	.st223{fill:#D8F2FB;}
	.st224{fill:#35495E;}
	.st225{fill:#556080;}
	.st226{fill:#E4C05C;}
	.st227{fill:#E4C05C;stroke:#E4C05C;stroke-width:2;stroke-linecap:round;stroke-linejoin:round;stroke-miterlimit:10;}
	.st228{fill:#B57F5F;}
	.st229{fill:#966A5B;}
	.st230{fill:#FFD15B;}
	.st231{fill:#A5C3DC;}
	.st232{fill:#8697CB;}
	.st233{fill:#E0E0E0;}
	.st234{fill:#CCCCCC;}
	.st235{fill:#8E8E8E;}
	.st236{fill:#A0A0A0;}
	.st237{fill:#E13732;}
	.st238{fill:#F05055;}
	.st239{fill:#D24605;}
	.st240{fill:#FFCE53;}
	.st241{fill:#FFB833;}
	.st242{fill:#4999D1;}
	.st243{fill:#43AAF0;}
	.st244{fill:#FF2E23;}
	.st245{fill:#FF4A26;}
	.st246{fill:#C6805D;}
	.st247{fill:#77CC7D;}
	.st248{fill:#52BD7E;}
	.st249{fill:#98DB7C;}
	.st250{fill:#D48C64;}
	.st251{fill:#FFD18D;}
	.st252{fill:#FBBD80;}
	.st253{fill:#F3B573;}
	.st254{fill:#434A54;}
	.st255{fill:#DA4453;}
	.st256{fill:#FFCE54;}
	.st257{fill:#ED5564;}
	.st258{fill-rule:evenodd;clip-rule:evenodd;fill:#4BC3EF;}
	.st259{fill-rule:evenodd;clip-rule:evenodd;fill:#1BADDE;}
	.st260{fill-rule:evenodd;clip-rule:evenodd;fill:#DBD8DB;}
	.st261{fill-rule:evenodd;clip-rule:evenodd;fill:#C9BFC8;}
	.st262{fill:#421815;}
	.st263{fill:#FCB982;}
	.st264{fill:#FDDBBF;}
	.st265{fill:#FCCA9F;}
	.st266{fill:#C6865C;}
	.st267{fill:#B16E3D;}
	.st268{fill:#454545;}
	.st269{fill:#EFECEF;}
	.st270{fill:#E2DFE2;}
	.st271{fill:#3F3736;}
	.st272{fill:#C4755B;}
	.st273{fill:#FFE3A1;}
	.st274{fill-rule:evenodd;clip-rule:evenodd;fill:#D48C64;}
	.st275{fill:#DBD8DB;}
	.st276{fill:#BB5D4C;}
	.st277{fill:#465A61;}
	.st278{fill:#596C76;}
	.st279{fill:#E5E1E5;}
	.st280{fill:#7A8C98;}
	.st281{fill:#FEDBA6;}
	.st282{fill:#EAB14D;}
	.st283{fill:#617881;}
	.st284{fill:#E28086;}
	.st285{fill:#DD636E;}
	.st286{fill:#FFE07D;}
	.st287{fill:#ECBE6B;}
	.st288{fill:#E9EDF5;}
	.st289{fill:#CDD2E1;}
	.st290{fill:#FFAA00;}
	.st291{fill:#FF9500;}
	.st292{fill:#555A65;}
	.st293{fill:#333940;}
	.st294{fill:#E6A373;}
	.st295{fill:#CC8552;}
	.st296{fill:#FFDF40;}
	.st297{fill:#FFBE40;}
	.st298{fill:#FF9F40;}
	.st299{fill:#F77E00;}
	.st300{fill:#FFF04A;}
	.st301{fill:#00DDC1;}
	.st302{fill:#A24603;}
	.st303{fill:#F2D813;}
	.st304{fill:#803602;}
	.st305{fill:#3A3A3A;}
	.st306{fill:#AFAFAF;}
	.st307{fill:#686868;}
	.st308{fill:#925A15;}
	.st309{fill:#F3F2F6;}
	.st310{fill:#BF7D5A;}
	.st311{fill:#AA6256;}
	.st312{fill:#894E46;}
	.st313{fill:#DBA660;}
	.st314{fill:#E49542;}
	.st315{fill:#F9EFDA;}
	.st316{fill:#756E78;}
	.st317{fill:#665E66;}
	.st318{fill:#F9F6F9;}
	.st319{fill:#BC6C59;}
	.st320{fill:#994B39;}
	.st321{fill:#FEEC96;}
	.st322{fill:#F5DB64;}
	.st323{fill:#5D5E69;}
	.st324{fill:#FFE09F;}
	.st325{fill:#ECBD83;}
	.st326{fill:#F6D190;}
	.st327{fill:#FF8086;}
	.st328{fill:#E5646E;}
	.st329{fill:#357DA3;}
	.st330{fill:#F48A3B;}
	.st331{fill:#FFC233;}
	.st332{fill:#CDDEE0;}
	.st333{fill:#C8C5C9;}
	.st334{fill:#785353;}
	.st335{fill:#6E4848;}
	.st336{fill:#B7E4F8;}
	.st337{fill:#93D6F4;}
	.st338{fill:#DBF1FB;}
	.st339{fill:#8DCAFC;}
	.st340{fill:#64B9FC;}
	.st341{fill:#C4E1FF;}
	.st342{fill:#B5DBFD;}
	.st343{fill:#FEE7C9;}
	.st344{fill:#FFD496;}
	.st345{fill:#A3E440;}
	.st346{fill:#99D53B;}
	.st347{fill:#BCEA73;}
	.st348{fill:#C76D3D;}
	.st349{fill:#AA5E33;}
	.st350{fill:#D67F4F;}
	.st351{fill:#8DC637;}
	.st352{fill:#A79BA7;}
	.st353{fill:#7A6D79;}
	.st354{fill:#C4E2FF;}
	.st355{fill:#60B7FF;}
	.st356{fill:#B3DAFE;}
	.st357{fill:#F3F0F3;}
	.st358{fill:#EFEDEF;}
	.st359{fill:#CBC4CC;}
	.st360{fill:#26A6FE;}
	.st361{fill:#D2555A;}
	.st362{fill:#FF6464;}
	.st363{fill:#D7DEED;}
	.st364{fill:#B8BFD4;}
	.st365{fill:#959CB3;}
	.st366{fill:#F8C460;}
	.st367{fill:#FAAF42;}
	.st368{fill:#7A838B;}
	.st369{fill:#5D6972;}
	.st370{fill:#A7D0E1;}
	.st371{fill:#80BBCE;}
	.st372{fill:#FFD8CA;}
	.st373{fill:#FFBFAE;}
	.st374{fill:#FFE5D8;}
	.st375{fill:#E5EEF9;}
	.st376{fill:#56595E;}
	.st377{fill:#7F8284;}
	.st378{fill:#A5A5A4;}
	.st379{fill:#95A5A5;}
	.st380{fill:#BDC3C7;}
	.st381{fill:#7F8C8D;}
</style>
<g id="Acoustic_Grand_Keyboard">
	<g>
		<path class="st134" d="M40.93,1.18V45.3c0,1.49-1.21,2.7-2.7,2.7H9.76c-1.49,0-2.7-1.21-2.7-2.7V1.18C7.07,0.53,7.59,0,8.24,0
			h31.52C40.41,0,40.93,0.53,40.93,1.18L40.93,1.18z"/>
		<path class="st276" d="M37.88,1.61v43.7c0,1.49-1.21,2.7-2.7,2.7H9.76c-1.49,0-2.7-1.21-2.7-2.7V1.18C7.07,0.53,7.59,0,8.24,0
			h28.03C37.16,0,37.88,0.72,37.88,1.61L37.88,1.61z"/>
		<path class="st277" d="M31.71,31.2c0,4.26-3.45,7.71-7.71,7.71c-0.57,0-1.13-0.06-1.67-0.18c-3.45-0.76-6.03-3.84-6.03-7.53
			s2.58-6.76,6.03-7.53c0.54-0.12,1.1-0.18,1.67-0.18C28.26,23.49,31.71,26.94,31.71,31.2z"/>
		<path class="st278" d="M28.36,31.2c0,3.68-2.58,6.76-6.03,7.53c-3.45-0.76-6.03-3.84-6.03-7.53s2.58-6.76,6.03-7.53
			C25.78,24.44,28.36,27.51,28.36,31.2z"/>
		<path class="st139" d="M13.21,2.99v16.63c0,0.85-0.69,1.54-1.54,1.54c-0.27-0.01-0.53-0.08-0.76-0.21
			c-0.46-0.27-0.78-0.76-0.78-1.33V4.17c0-0.65,0.53-1.18,1.18-1.18L13.21,2.99z"/>
		<path class="st279" d="M11.67,2.99v16.63c0,0.57-0.3,1.06-0.76,1.33c-0.46-0.27-0.78-0.76-0.78-1.33V4.17
			c0-0.65,0.53-1.18,1.18-1.18L11.67,2.99z"/>
		<path class="st139" d="M16.29,2.99v18.56c0,0.85-0.69,1.54-1.54,1.54c-0.27-0.01-0.53-0.08-0.76-0.21
			c-0.46-0.27-0.78-0.76-0.78-1.33V2.99L16.29,2.99z"/>
		<path class="st279" d="M14.75,2.99v18.56c0,0.57-0.3,1.06-0.76,1.33c-0.46-0.27-0.78-0.76-0.78-1.33V2.99L14.75,2.99z"/>
		<path class="st139" d="M19.37,2.99v20.5c0,0.85-0.69,1.54-1.54,1.54c-0.27-0.01-0.53-0.08-0.76-0.21
			c-0.46-0.27-0.78-0.76-0.78-1.33V2.99L19.37,2.99z"/>
		<path class="st279" d="M17.83,2.99v20.5c0,0.57-0.3,1.06-0.76,1.33c-0.46-0.27-0.78-0.76-0.78-1.33V2.99L17.83,2.99z"/>
		<path class="st139" d="M22.46,2.99v22.43c0,0.85-0.69,1.54-1.54,1.54c-0.27-0.01-0.53-0.08-0.76-0.21
			c-0.46-0.27-0.78-0.76-0.78-1.33V2.99L22.46,2.99z"/>
		<path class="st279" d="M20.92,2.99v22.43c0,0.57-0.3,1.06-0.76,1.33c-0.46-0.27-0.78-0.76-0.78-1.33V2.99L20.92,2.99z"/>
		<path class="st139" d="M36.7,2.99c0.65,0,1.18,0.53,1.18,1.18v15.46c0,0.85-0.71,1.52-1.54,1.54c-0.28,0-0.55-0.08-0.78-0.21
			c-0.45-0.27-0.76-0.76-0.76-1.33V2.99L36.7,2.99z"/>
		<path class="st279" d="M36.33,2.99v16.63c0,0.57-0.32,1.06-0.78,1.33c-0.45-0.27-0.76-0.76-0.76-1.33V2.99L36.33,2.99z"/>
		<path class="st139" d="M34.79,2.99v18.56c0,0.85-0.71,1.52-1.54,1.54c-0.29,0-0.55-0.08-0.78-0.21c-0.45-0.27-0.76-0.76-0.76-1.33
			V2.99L34.79,2.99z"/>
		<path class="st279" d="M33.25,2.99v18.56c0,0.57-0.32,1.06-0.78,1.33c-0.45-0.27-0.76-0.76-0.76-1.33V2.99L33.25,2.99z"/>
		<path class="st139" d="M31.71,2.99v20.5c0,0.85-0.71,1.52-1.54,1.54c-0.29,0-0.55-0.08-0.78-0.21c-0.45-0.27-0.76-0.76-0.76-1.33
			V2.99L31.71,2.99z"/>
		<path class="st279" d="M30.17,2.99v20.5c0,0.57-0.32,1.06-0.78,1.33c-0.45-0.27-0.76-0.76-0.76-1.33V2.99L30.17,2.99z"/>
		<path class="st139" d="M28.63,2.99v22.43c0,0.85-0.71,1.52-1.54,1.54c-0.29,0-0.55-0.08-0.78-0.21c-0.45-0.27-0.76-0.76-0.76-1.33
			V2.99L28.63,2.99z"/>
		<path class="st279" d="M27.08,2.99v22.43c0,0.57-0.32,1.06-0.78,1.33c0,0,0,0,0,0c-0.45-0.27-0.76-0.76-0.76-1.33V2.99
			c0,0,0,0,0,0L27.08,2.99z"/>
		<path class="st139" d="M25.54,2.99v24.36c0,0.85-0.69,1.54-1.54,1.54c-0.27-0.01-0.53-0.08-0.76-0.21
			c-0.46-0.27-0.78-0.76-0.78-1.33V2.99L25.54,2.99z"/>
		<path class="st279" d="M24,2.99v24.36c0,0.57-0.3,1.06-0.76,1.33c-0.46-0.27-0.78-0.76-0.78-1.33V2.99L24,2.99z"/>
		<path class="st278" d="M7.07,8.36h33.87v4.68H7.07V8.36z"/>
		<path class="st280" d="M7.07,8.36h30.81v4.68H7.07V8.36z"/>
		<g>
			<circle class="st279" cx="24" cy="10.7" r="0.72"/>
			<circle class="st279" cx="16.29" cy="10.7" r="0.72"/>
			<circle class="st279" cx="31.71" cy="10.7" r="0.72"/>
		</g>
		<g>
			<path class="st281" d="M28.32,44.23h-8.65c-0.4,0-0.72-0.32-0.72-0.72c0-0.4,0.32-0.72,0.72-0.72h8.65c0.4,0,0.72,0.32,0.72,0.72
				C29.05,43.91,28.72,44.23,28.32,44.23z"/>
		</g>
	</g>
</g>
<g id="Layer_2">
</g>
</svg>

<svg id="Acoustic_Grand_Keyboard" data-name="Acoustic Grand Keyboard" xmlns="http://www.w3.org/2000/svg" viewBox="0 0 48 48"><defs><style>.cls-1{fill:#a44f3e;}.cls-2{fill:#bb5d4c;}.cls-3{fill:#465a61;}.cls-4{fill:#596c76;}.cls-5{fill:#d7d0d6;}.cls-6{fill:#e5e1e5;}.cls-7{fill:#7a8c98;}.cls-8{fill:#fedba6;}</style></defs><path class="cls-1" d="M40.93,1.18V45.3A2.69,2.69,0,0,1,38.24,48H9.76a2.69,2.69,0,0,1-2.69-2.7V1.18A1.17,1.17,0,0,1,8.24,0H39.76a1.17,1.17,0,0,1,1.17,1.18Z"/><path class="cls-2" d="M37.88,1.61V45.3a2.7,2.7,0,0,1-2.7,2.7H9.76a2.69,2.69,0,0,1-2.69-2.7V1.18A1.17,1.17,0,0,1,8.24,0h28a1.61,1.61,0,0,1,1.61,1.61Z"/><path class="cls-3" d="M31.71,31.2A7.72,7.72,0,1,1,24,23.49,7.71,7.71,0,0,1,31.71,31.2Z"/><path class="cls-4" d="M28.36,31.2a7.7,7.7,0,0,1-6,7.52,7.71,7.71,0,0,1,0-15A7.71,7.71,0,0,1,28.36,31.2Z"/><path class="cls-5" d="M13.21,3V19.62a1.54,1.54,0,0,1-1.54,1.55,1.61,1.61,0,0,1-.76-.22,1.54,1.54,0,0,1-.79-1.33V4.17A1.18,1.18,0,0,1,11.3,3Z"/><path class="cls-6" d="M11.67,3V19.62A1.54,1.54,0,0,1,10.91,21a1.54,1.54,0,0,1-.79-1.33V4.17A1.18,1.18,0,0,1,11.3,3Z"/><path class="cls-5" d="M16.29,3V21.56a1.54,1.54,0,0,1-1.54,1.54,1.66,1.66,0,0,1-.76-.21,1.55,1.55,0,0,1-.78-1.33V3Z"/><path class="cls-6" d="M14.75,3V21.56A1.54,1.54,0,0,1,14,22.89a1.55,1.55,0,0,1-.78-1.33V3Z"/><path class="cls-5" d="M19.37,3v20.5A1.54,1.54,0,0,1,17.83,25a1.59,1.59,0,0,1-.75-.21,1.54,1.54,0,0,1-.79-1.33V3Z"/><path class="cls-6" d="M17.83,3v20.5a1.55,1.55,0,0,1-.75,1.33,1.54,1.54,0,0,1-.79-1.33V3Z"/><path class="cls-5" d="M22.46,3V25.42A1.54,1.54,0,0,1,20.92,27a1.49,1.49,0,0,1-.76-.21,1.56,1.56,0,0,1-.79-1.33V3Z"/><path class="cls-6" d="M20.92,3V25.42a1.55,1.55,0,0,1-.76,1.33,1.56,1.56,0,0,1-.79-1.33V3Z"/><path class="cls-5" d="M36.7,3a1.18,1.18,0,0,1,1.18,1.18V19.62a1.58,1.58,0,0,1-1.55,1.55,1.5,1.5,0,0,1-.78-.22,1.54,1.54,0,0,1-.76-1.33V3Z"/><path class="cls-6" d="M36.33,3V19.62A1.53,1.53,0,0,1,35.55,21a1.54,1.54,0,0,1-.76-1.33V3Z"/><path class="cls-5" d="M34.79,3V21.56a1.54,1.54,0,0,1-2.32,1.33,1.54,1.54,0,0,1-.76-1.33V3Z"/><path class="cls-6" d="M33.25,3V21.56a1.55,1.55,0,0,1-.78,1.33,1.54,1.54,0,0,1-.76-1.33V3Z"/><path class="cls-5" d="M31.71,3v20.5A1.57,1.57,0,0,1,30.17,25a1.6,1.6,0,0,1-.79-.21,1.55,1.55,0,0,1-.75-1.33V3Z"/><path class="cls-6" d="M30.17,3v20.5a1.54,1.54,0,0,1-.79,1.33,1.55,1.55,0,0,1-.75-1.33V3Z"/><path class="cls-5" d="M28.63,3V25.42A1.57,1.57,0,0,1,27.08,27a1.6,1.6,0,0,1-.78-.21,1.55,1.55,0,0,1-.76-1.33V3Z"/><path class="cls-6" d="M27.08,3V25.42a1.55,1.55,0,0,1-.78,1.33h0a1.55,1.55,0,0,1-.76-1.33V3h1.54Z"/><path class="cls-5" d="M25.54,3V27.35a1.54,1.54,0,0,1-3.08,0V3Z"/><path class="cls-6" d="M24,3V27.35a1.53,1.53,0,0,1-.76,1.33,1.55,1.55,0,0,1-.78-1.33V3Z"/><path class="cls-4" d="M7.07,8.36H40.93V13H7.07Z"/><path class="cls-7" d="M7.07,8.36H37.88V13H7.07Z"/><circle class="cls-6" cx="24" cy="10.7" r="0.72"/><circle class="cls-6" cx="16.29" cy="10.7" r="0.72"/><circle class="cls-6" cx="31.71" cy="10.7" r="0.72"/><path class="cls-8" d="M28.32,44.23H19.68a.73.73,0,0,1-.73-.72.73.73,0,0,1,.73-.73h8.64a.73.73,0,0,1,.73.73A.73.73,0,0,1,28.32,44.23Z"/></svg>
